X: 1
T: The Ferry Road - A1A2 B1B2 A2
C: Margaret Leask
S: From Bruce Shawyer (March 2011)
R: jig
K: G
M: 6/8
L: 1/16
"A"[|] Bc |\
"G"d4g2 b4a2 | g6 g2f2e2 |\
d4d2 d2e2d2 | "Am"c6 c4B2 |\
"D7"A4B2 c4d2 | f6 e6 |\
[1 "D7"d4d2 d2e2d2 | "G"B6 B4c2 :|\
[2 "D7"d4d2 d2e2f2 | "G"g6 g4 |]
"B"|:\
"G"d4d2 d2e2d2 | B6 G6 |\
"(Em)"G4G2 G2B2G2 | "Am"E6 E2F2E2 |\
"D7"D4F2 A4d2 | f6 e6 |\
[1 "D7"d4d2 d2e2d2 | "G"B6 B4c2 :|\
[2 "D7"d4d2 d2e2f2 | "G"g6 g4 |]
